X:950
T:N Fios
R:reel
D:Slide: The Flying Pig
Z:Devin McCabe
M:C|
L:1/8
K:GDor
DGGA d2cA|dAcA GFDC|DGGA d/2d/2d cA|1^cd=cA G2 (3A,B,C:|2d2cA G2dc||
!B2cB d~f3|gage fedc|B2cB d~f3|gfdB c2dc|
!B2cB d~f3|gage fdef|gfdc B/2c/2d cA|~B2AF DGGF||
